Newaita-dark/apps/32/com.github.lainsce.palaura.svg

<svg height="32" viewBox="0 0 32 32" width="32" xmlns="http://www.w3.org/2000/svg" xmlns:xlink="http://www.w3.org/1999/xlink"><linearGradient id="a" gradientUnits="userSpaceOnUse" x1="15.87652" x2="15.87652" y1="28.033936" y2="29.35698000003"><stop offset="0" stop-opacity=".27451"/><stop offset="1" stop-opacity="0"/></linearGradient><linearGradient id="b"><stop offset="0" stop-opacity=".313726"/><stop offset=".222222" stop-opacity=".27451"/><stop offset="1" stop-opacity="0"/></linearGradient><radialGradient id="c" cx="450.908936" cy="189.579361" gradientTransform="matrix(.00000017 -.0781325 -.140638 -.0000001 50.146086 63.595333)" gradientUnits="userSpaceOnUse" r="21.166656" xlink:href="#b"/><radialGradient id="d" cx="450.908936" cy="189.579361" gradientTransform="matrix(-.00000017 .0781325 .140638 .0000001 -18.393049 -7.52748)" gradientUnits="userSpaceOnUse" r="21.166656" xlink:href="#b"/><radialGradient id="e" cx="450.908936" cy="189.579361" gradientTransform="matrix(-.00000017 -.0781325 .140638 -.0000001 -18.393049 63.595333)" gradientUnits="userSpaceOnUse" r="21.166656" xlink:href="#b"/><radialGradient id="f" cx="450.908936" cy="189.579361" gradientTransform="matrix(.00000017 .0781325 -.140638 .0000001 50.146084 -7.527479)" gradientUnits="userSpaceOnUse" r="21.166656" xlink:href="#b"/><linearGradient id="g" gradientTransform="matrix(.0753497 0 0 .217412 -5.854013 33.641348)" gradientUnits="userSpaceOnUse" x1="306.916656" x2="305.954559" y1="-25.791676" y2="-141.414581"><stop offset="0" stop-color="#f44336"/><stop offset="1" stop-color="#ef5350"/></linearGradient><linearGradient id="h"><stop offset="0" stop-color="#424242"/><stop offset="1" stop-color="#616161"/></linearGradient><linearGradient id="i" gradientTransform="matrix(4.556143 0 0 13.146184 -353.972656 2034.180176)" gradientUnits="userSpaceOnUse" x1="165.484848" x2="165.484848" xlink:href="#h" y1="-25.791672" y2="-141.414581"/><linearGradient id="j" gradientUnits="userSpaceOnUse" x1="17.53028" x2="17.53028" xlink:href="#h" y1="28.03386419623" y2="2.89610343548"/><linearGradient id="k" gradientUnits="userSpaceOnUse" x1="275.166326" x2="275.166326" xlink:href="#h" y1="233.49969318561" y2="-168.66647475188"/><linearGradient id="l" gradientUnits="userSpaceOnUse" x1="6.61521900006" x2="6.61521900006" xlink:href="#h" y1="10.5036216875" y2="9.18057812501"/><linearGradient id="m" gradientUnits="userSpaceOnUse" x1="6.61521900006" x2="6.61521900006" xlink:href="#h" y1="21.4187276875" y2="20.09568412501"/><path d="m7.9375 28.035156h15.878906v1.320313h-15.878906zm0 0" fill="url(#a)"/><path d="m23.816406 28.035156h2.644532v-1.324218h-2.644532zm0 0" fill="url(#c)"/><path d="m7.9375 28.035156h-2.644531v1.320313h2.644531zm0 0" fill="url(#d)"/><path d="m7.9375 28.035156h-2.644531v-1.324218h2.644531zm0 0" fill="url(#e)"/><path d="m23.816406 28.035156h2.644532v1.320313h-2.644532zm0 0" fill="url(#f)"/><path d="m6.613281 2.894531h18.523438c.730469 0 1.324219.59375 1.324219 1.324219v22.492188c0 .730468-.59375 1.324218-1.324219 1.324218h-18.523438c-.730469 0-1.320312-.59375-1.320312-1.324218v-22.492188c0-.730469.589843-1.324219 1.320312-1.324219zm0 0" fill="url(#g)"/><path d="m399.883094 175.022665c-44.169013 0-79.8349 35.665888-79.8349 80.071098v1360.027676c0 44.405211 35.665887 80.071098 79.8349 80.071098h120.224746v-1520.169872zm0 0" fill="url(#i)" stroke="#212121" stroke-linecap="round" stroke-width="11.338583" transform="scale(.016538)"/><path d="m6.613281 28.035156c-.730469 0-1.320312-.589844-1.320312-1.324218v-.164063c0 .730469.589843 1.320313 1.320312 1.320313h18.523438c.734375 0 1.324219-.589844 1.324219-1.320313v.164063c0 .734374-.589844 1.324218-1.324219 1.324218zm0 0" fill-opacity=".196078"/><path d="m6.613281 2.894531c-.730469 0-1.320312.589844-1.320312 1.324219v.164062c0-.730468.589843-1.324218 1.320312-1.320312h18.523438c.734375-.003906 1.324219.589844 1.324219 1.320312v-.164062c0-.734375-.589844-1.324219-1.324219-1.324219zm0 0" fill="#e6e6e6" fill-opacity=".937239"/><path d="m6.617188 2.800781c-.785157 0-1.417969.636719-1.417969 1.417969v22.492188c0 .785156.632812 1.417968 1.417969 1.417968h18.519531c.785156 0 1.417969-.632812 1.417969-1.417968v-22.492188c0-.78125-.632813-1.417969-1.417969-1.417969zm0 .1875h18.519531c.683593 0 1.230469.546875 1.230469 1.230469v22.492188c0 .683593-.546876 1.230468-1.230469 1.230468h-18.519531c-.683594 0-1.230469-.546875-1.230469-1.230468v-22.492188c0-.683594.546875-1.230469 1.230469-1.230469zm0 0" fill="#212121"/><path d="m20.792969 7.851562c-1.886719-.003906-3.949219.023438-5.664063 1.261719-1.832031 1.320313-2.898437 3.875-2.898437 8.324219v3.320312c-.003907.359376.1875.691407.496093.875.3125.179688.695313.179688 1.007813 0 .308594-.183593.5-.515624.496094-.875v-3.320312c0-.59375.015625-1.136719.054687-1.636719h5.886719v4.957031c-.007813.359376.183594.691407.496094.875.308593.179688.691406.179688 1.003906 0 .308594-.183593.5-.515624.496094-.875v-5.8125c.011719-.09375.011719-.191406 0-.285156v-5.808594c0-.554687-.449219-1-1-1-.125 0-.25 0-.375 0zm-.621094 2.011719v3.941407h-5.613281c.367187-1.648438 1.007812-2.546876 1.738281-3.070313.945313-.683594 2.3125-.835937 3.875-.871094zm0 0" fill="url(#j)"/><path d="m20.792969 7.851562c-1.886719-.003906-3.949219.023438-5.664063 1.261719-1.832031 1.320313-2.898437 3.875-2.898437 8.324219v.335938c0-4.445313 1.066406-7.003907 2.898437-8.324219 1.714844-1.234375 3.777344-1.261719 5.664063-1.261719h.375c.550781 0 1 .449219 1 1v-.335938c0-.554687-.449219-1-1-1-.125 0-.25 0-.375 0zm-6.105469 5.953126c-.046875.160156-.089844.328124-.128906.503906h.082031c.015625-.058594.03125-.113282.046875-.167969h5.484375v-.335937zm7.480469.855468v.285156c.011719-.09375.011719-.191406 0-.285156zm0 0" fill="#fff" fill-opacity=".313726"/><path d="m20.171875 9.855469c-1.5625.035156-2.929687.1875-3.875.871093-.730469.527344-1.371094 1.421876-1.738281 3.070313h.175781c.375-1.234375.933594-1.957031 1.5625-2.410156.945313-.683594 2.3125-.832031 3.875-.867188zm1.996094 5.460937v.285156c.011719-.097656.011719-.191406 0-.285156zm-7.882813.480469c-.039062.496094-.054687 1.039063-.054687 1.632813v.660156c0-.589844.015625-1.132813.054687-1.632813h5.886719v-.660156zm-2.054687 4.953125v.664062c-.003907.359376.1875.691407.496093.871094.3125.183594.695313.183594 1.007813 0 .308594-.179687.5-.511718.496094-.871094v-.664062c.003906.359375-.1875.695312-.496094.875-.3125.179688-.695313.179688-1.007813 0-.308593-.179688-.5-.515625-.496093-.875zm7.941406 0v.664062c-.007813.359376.183594.691407.496094.871094.308593.183594.691406.183594 1.003906 0 .308594-.179687.5-.511718.496094-.871094v-.664062c.003906.359375-.1875.695312-.496094.875-.3125.179688-.695313.179688-1.003906 0-.3125-.179688-.503907-.515625-.496094-.875zm0 0" fill-opacity=".235294"/><path d="m1257.281577 474.757837c-114.0836-.236197-238.796107 1.417188-342.486998 76.291932-110.776828 79.8349-175.258863 234.308345-175.258863 503.337786v200.76824c-.236198 21.73021 11.337501 41.807034 29.997137 52.908336 18.895834 10.865105 42.043231 10.865105 60.939066 0 18.659636-11.101302 30.233335-31.178126 29.997137-52.908336v-200.76824c0-35.902085.944791-68.733597 3.306771-98.966932h355.950279v299.735172c-.472396 21.73021 11.101302 41.807034 29.997137 52.908336 18.659636 10.865105 41.807033 10.865105 60.702868 0 18.659636-11.101302 30.233334-31.178126 29.997137-52.908336v-351.462518c.708593-5.668751.708593-11.573699 0-17.242449v-351.226321c0-33.540106-27.162762-60.46667-60.46667-60.46667-7.558334 0-15.116668 0-22.675001 0zm-37.555471 121.641934v238.32371h-339.416424c22.202605-99.675526 60.939065-154.001049 105.108078-185.651572 57.159899-41.334637 139.829174-50.546357 234.308346-52.672138zm0 0" fill="none" stroke="#212121" stroke-linecap="round" stroke-linejoin="round" stroke-width="11.338583" transform="scale(.016538)"/><path d="m148.17335-147.506445v359.840637h243.414255c5.874439 0 10.561492-4.749547 10.561492-10.561492v-338.717654c0-5.811945-4.687053-10.561491-10.561492-10.561491zm0 0" style="fill:none;stroke-width:8;stroke-linecap:round;stroke-linejoin:round;stroke-dasharray:16 16;stroke-dashoffset:7.200001;stroke:url(#k)" transform="matrix(.062506 0 0 .062506 0 13.438783)"/><path d="m5.292969 9.179688h3.308593v1.324218h-3.308593zm0 0" fill="url(#l)"/><path d="m5.292969 10.503906v.496094h3.308593v-.496094zm0 0" fill-opacity=".235294"/><path d="m5.292969 9.179688v.332031h3.308593v-.332031zm0 0" fill="#fff" fill-opacity=".392157"/><path d="m84.679408-20.514265h52.932446v21.185477h-52.932446zm0 0" fill="none" stroke="#212121" stroke-linecap="round" stroke-linejoin="round" stroke-width="3" transform="matrix(.062506 0 0 .062506 0 10.461951)"/><path d="m5.292969 20.09375h3.308593v1.324219h-3.308593zm0 0" fill="url(#m)"/><path d="m5.292969 21.417969v.496093h3.308593v-.496093zm0 0" fill-opacity=".235294"/><path d="m5.292969 20.09375v.332031h3.308593v-.332031zm0 0" fill="#fff" fill-opacity=".392157"/><path d="m84.679408-20.530958h52.932446v21.185477h-52.932446zm0 0" fill="none" stroke="#212121" stroke-linecap="round" stroke-linejoin="round" stroke-width="3" transform="matrix(.062506 0 0 .062506 0 21.377057)"/></svg>

<?xml version="1.0" encoding="UTF-8"?>
<svg xmlns="http://www.w3.org/2000/svg" xmlns:xlink="http://www.w3.org/1999/xlink" width="32px" height="32px" viewBox="0 0 32 32" version="1.1">
<defs>
<linearGradient id="linear0" gradientUnits="userSpaceOnUse" x1="254" y1="233.5" x2="254" y2="254.666672" gradientTransform="matrix(0.062506,0,0,0.062506,-0.00000381506,13.438785)">
<stop offset="0" style="stop-color:rgb(0%,0%,0%);stop-opacity:0.27451;"/>
<stop offset="1" style="stop-color:rgb(0%,0%,0%);stop-opacity:0;"/>
</linearGradient>
<radialGradient id="radial0" gradientUnits="userSpaceOnUse" cx="450.908936" cy="189.579361" fx="450.908936" fy="189.579361" r="21.166656" gradientTransform="matrix(0.00000017417,-0.0781325,-0.140638,-0.000000101539,50.146086,63.595333)">
<stop offset="0" style="stop-color:rgb(0%,0%,0%);stop-opacity:0.313726;"/>
<stop offset="0.222222" style="stop-color:rgb(0%,0%,0%);stop-opacity:0.27451;"/>
<stop offset="1" style="stop-color:rgb(0%,0%,0%);stop-opacity:0;"/>
</radialGradient>
<radialGradient id="radial1" gradientUnits="userSpaceOnUse" cx="450.908936" cy="189.579361" fx="450.908936" fy="189.579361" r="21.166656" gradientTransform="matrix(-0.00000017417,0.0781325,0.140638,0.000000101539,-18.393049,-7.52748)">
<stop offset="0" style="stop-color:rgb(0%,0%,0%);stop-opacity:0.313726;"/>
<stop offset="0.222222" style="stop-color:rgb(0%,0%,0%);stop-opacity:0.27451;"/>
<stop offset="1" style="stop-color:rgb(0%,0%,0%);stop-opacity:0;"/>
</radialGradient>
<radialGradient id="radial2" gradientUnits="userSpaceOnUse" cx="450.908936" cy="189.579361" fx="450.908936" fy="189.579361" r="21.166656" gradientTransform="matrix(-0.00000017417,-0.0781325,0.140638,-0.000000101539,-18.393049,63.595333)">
<stop offset="0" style="stop-color:rgb(0%,0%,0%);stop-opacity:0.313726;"/>
<stop offset="0.222222" style="stop-color:rgb(0%,0%,0%);stop-opacity:0.27451;"/>
<stop offset="1" style="stop-color:rgb(0%,0%,0%);stop-opacity:0;"/>
</radialGradient>
<radialGradient id="radial3" gradientUnits="userSpaceOnUse" cx="450.908936" cy="189.579361" fx="450.908936" fy="189.579361" r="21.166656" gradientTransform="matrix(0.00000017417,0.0781325,-0.140638,0.000000101539,50.146084,-7.527479)">
<stop offset="0" style="stop-color:rgb(0%,0%,0%);stop-opacity:0.313726;"/>
<stop offset="0.222222" style="stop-color:rgb(0%,0%,0%);stop-opacity:0.27451;"/>
<stop offset="1" style="stop-color:rgb(0%,0%,0%);stop-opacity:0;"/>
</radialGradient>
<linearGradient id="linear1" gradientUnits="userSpaceOnUse" x1="306.916656" y1="-25.791676" x2="305.954559" y2="-141.414581" gradientTransform="matrix(0.0753497,0,0,0.217412,-5.854013,33.641348)">
<stop offset="0" style="stop-color:rgb(95.686275%,26.274511%,21.176471%);stop-opacity:1;"/>
<stop offset="1" style="stop-color:rgb(93.725491%,32.549021%,31.37255%);stop-opacity:1;"/>
</linearGradient>
<linearGradient id="linear2" gradientUnits="userSpaceOnUse" x1="165.484848" y1="-25.791672" x2="165.484848" y2="-141.414581" gradientTransform="matrix(4.556143,0,0,13.146184,-353.972656,2034.180176)">
<stop offset="0" style="stop-color:rgb(25.882354%,25.882354%,25.882354%);stop-opacity:1;"/>
<stop offset="1" style="stop-color:rgb(38.039216%,38.039216%,38.039216%);stop-opacity:1;"/>
</linearGradient>
<linearGradient id="linear3" gradientUnits="userSpaceOnUse" x1="1060" y1="1695.118164" x2="1060" y2="175.118118" gradientTransform="matrix(0.016538,0,0,0.016538,0,0)">
<stop offset="0" style="stop-color:rgb(25.882354%,25.882354%,25.882354%);stop-opacity:1;"/>
<stop offset="1" style="stop-color:rgb(38.039216%,38.039216%,38.039216%);stop-opacity:1;"/>
</linearGradient>
<linearGradient id="linear4" gradientUnits="userSpaceOnUse" x1="1040" y1="1695.118164" x2="1040" y2="175.118134" gradientTransform="matrix(0.264583,0,0,0.264583,0.00000608626,-214.999756)">
<stop offset="0" style="stop-color:rgb(25.882354%,25.882354%,25.882354%);stop-opacity:1;"/>
<stop offset="1" style="stop-color:rgb(38.039216%,38.039216%,38.039216%);stop-opacity:1;"/>
</linearGradient>
<linearGradient id="linear5" gradientUnits="userSpaceOnUse" x1="105.833344" y1="0.666667" x2="105.833344" y2="-20.499998" gradientTransform="matrix(0.062506,0,0,0.062506,0.000000317922,10.461951)">
<stop offset="0" style="stop-color:rgb(25.882354%,25.882354%,25.882354%);stop-opacity:1;"/>
<stop offset="1" style="stop-color:rgb(38.039216%,38.039216%,38.039216%);stop-opacity:1;"/>
</linearGradient>
<linearGradient id="linear6" gradientUnits="userSpaceOnUse" x1="105.833344" y1="0.666667" x2="105.833344" y2="-20.499998" gradientTransform="matrix(0.062506,0,0,0.062506,0.000000317922,21.377057)">
<stop offset="0" style="stop-color:rgb(25.882354%,25.882354%,25.882354%);stop-opacity:1;"/>
<stop offset="1" style="stop-color:rgb(38.039216%,38.039216%,38.039216%);stop-opacity:1;"/>
</linearGradient>
</defs>
<g id="surface1">
<path style=" stroke:none;fill-rule:nonzero;fill:url(#linear0);" d="M 7.9375 28.035156 L 23.816406 28.035156 L 23.816406 29.355469 L 7.9375 29.355469 Z M 7.9375 28.035156 "/>
<path style=" stroke:none;fill-rule:nonzero;fill:url(#radial0);" d="M 23.816406 28.035156 L 26.460938 28.035156 L 26.460938 26.710938 L 23.816406 26.710938 Z M 23.816406 28.035156 "/>
<path style=" stroke:none;fill-rule:nonzero;fill:url(#radial1);" d="M 7.9375 28.035156 L 5.292969 28.035156 L 5.292969 29.355469 L 7.9375 29.355469 Z M 7.9375 28.035156 "/>
<path style=" stroke:none;fill-rule:nonzero;fill:url(#radial2);" d="M 7.9375 28.035156 L 5.292969 28.035156 L 5.292969 26.710938 L 7.9375 26.710938 Z M 7.9375 28.035156 "/>
<path style=" stroke:none;fill-rule:nonzero;fill:url(#radial3);" d="M 23.816406 28.035156 L 26.460938 28.035156 L 26.460938 29.355469 L 23.816406 29.355469 Z M 23.816406 28.035156 "/>
<path style=" stroke:none;fill-rule:nonzero;fill:url(#linear1);" d="M 6.613281 2.894531 L 25.136719 2.894531 C 25.867188 2.894531 26.460938 3.488281 26.460938 4.21875 L 26.460938 26.710938 C 26.460938 27.441406 25.867188 28.035156 25.136719 28.035156 L 6.613281 28.035156 C 5.882812 28.035156 5.292969 27.441406 5.292969 26.710938 L 5.292969 4.21875 C 5.292969 3.488281 5.882812 2.894531 6.613281 2.894531 Z M 6.613281 2.894531 "/>
<path style="fill-rule:nonzero;fill:url(#linear2);stroke-width:11.338583;stroke-linecap:round;stroke-linejoin:miter;stroke:rgb(12.941177%,12.941177%,12.941177%);stroke-opacity:1;stroke-miterlimit:4;" d="M 399.883094 175.022665 C 355.714081 175.022665 320.048194 210.688553 320.048194 255.093763 L 320.048194 1615.121439 C 320.048194 1659.52665 355.714081 1695.192537 399.883094 1695.192537 L 520.10784 1695.192537 L 520.10784 175.022665 Z M 399.883094 175.022665 " transform="matrix(0.016538,0,0,0.016538,0,0)"/>
<path style=" stroke:none;fill-rule:nonzero;fill:rgb(0%,0%,0%);fill-opacity:0.196078;" d="M 6.613281 28.035156 C 5.882812 28.035156 5.292969 27.445312 5.292969 26.710938 L 5.292969 26.546875 C 5.292969 27.277344 5.882812 27.867188 6.613281 27.867188 L 25.136719 27.867188 C 25.871094 27.867188 26.460938 27.277344 26.460938 26.546875 L 26.460938 26.710938 C 26.460938 27.445312 25.871094 28.035156 25.136719 28.035156 Z M 6.613281 28.035156 "/>
<path style=" stroke:none;fill-rule:nonzero;fill:rgb(90.196079%,90.196079%,90.196079%);fill-opacity:0.937239;" d="M 6.613281 2.894531 C 5.882812 2.894531 5.292969 3.484375 5.292969 4.21875 L 5.292969 4.382812 C 5.292969 3.652344 5.882812 3.058594 6.613281 3.0625 L 25.136719 3.0625 C 25.871094 3.058594 26.460938 3.652344 26.460938 4.382812 L 26.460938 4.21875 C 26.460938 3.484375 25.871094 2.894531 25.136719 2.894531 Z M 6.613281 2.894531 "/>
<path style=" stroke:none;fill-rule:nonzero;fill:rgb(12.941177%,12.941177%,12.941177%);fill-opacity:1;" d="M 6.617188 2.800781 C 5.832031 2.800781 5.199219 3.4375 5.199219 4.21875 L 5.199219 26.710938 C 5.199219 27.496094 5.832031 28.128906 6.617188 28.128906 L 25.136719 28.128906 C 25.921875 28.128906 26.554688 27.496094 26.554688 26.710938 L 26.554688 4.21875 C 26.554688 3.4375 25.921875 2.800781 25.136719 2.800781 Z M 6.617188 2.988281 L 25.136719 2.988281 C 25.820312 2.988281 26.367188 3.535156 26.367188 4.21875 L 26.367188 26.710938 C 26.367188 27.394531 25.820312 27.941406 25.136719 27.941406 L 6.617188 27.941406 C 5.933594 27.941406 5.386719 27.394531 5.386719 26.710938 L 5.386719 4.21875 C 5.386719 3.535156 5.933594 2.988281 6.617188 2.988281 Z M 6.617188 2.988281 "/>
<path style=" stroke:none;fill-rule:nonzero;fill:url(#linear3);" d="M 20.792969 7.851562 C 18.90625 7.847656 16.84375 7.875 15.128906 9.113281 C 13.296875 10.433594 12.230469 12.988281 12.230469 17.4375 L 12.230469 20.757812 C 12.226562 21.117188 12.417969 21.449219 12.726562 21.632812 C 13.039062 21.8125 13.421875 21.8125 13.734375 21.632812 C 14.042969 21.449219 14.234375 21.117188 14.230469 20.757812 L 14.230469 17.4375 C 14.230469 16.84375 14.246094 16.300781 14.285156 15.800781 L 20.171875 15.800781 L 20.171875 20.757812 C 20.164062 21.117188 20.355469 21.449219 20.667969 21.632812 C 20.976562 21.8125 21.359375 21.8125 21.671875 21.632812 C 21.980469 21.449219 22.171875 21.117188 22.167969 20.757812 L 22.167969 14.945312 C 22.179688 14.851562 22.179688 14.753906 22.167969 14.660156 L 22.167969 8.851562 C 22.167969 8.296875 21.71875 7.851562 21.167969 7.851562 C 21.042969 7.851562 20.917969 7.851562 20.792969 7.851562 Z M 20.171875 9.863281 L 20.171875 13.804688 L 14.558594 13.804688 C 14.925781 12.15625 15.566406 11.257812 16.296875 10.734375 C 17.242188 10.050781 18.609375 9.898438 20.171875 9.863281 Z M 20.171875 9.863281 "/>
<path style=" stroke:none;fill-rule:nonzero;fill:rgb(100%,100%,100%);fill-opacity:0.313726;" d="M 20.792969 7.851562 C 18.90625 7.847656 16.84375 7.875 15.128906 9.113281 C 13.296875 10.433594 12.230469 12.988281 12.230469 17.4375 L 12.230469 17.773438 C 12.230469 13.328125 13.296875 10.769531 15.128906 9.449219 C 16.84375 8.214844 18.90625 8.1875 20.792969 8.1875 C 20.917969 8.1875 21.042969 8.1875 21.167969 8.1875 C 21.71875 8.1875 22.167969 8.636719 22.167969 9.1875 L 22.167969 8.851562 C 22.167969 8.296875 21.71875 7.851562 21.167969 7.851562 C 21.042969 7.851562 20.917969 7.851562 20.792969 7.851562 Z M 14.6875 13.804688 C 14.640625 13.964844 14.597656 14.132812 14.558594 14.308594 L 14.640625 14.308594 C 14.65625 14.25 14.671875 14.195312 14.6875 14.140625 L 20.171875 14.140625 L 20.171875 13.804688 Z M 22.167969 14.660156 L 22.167969 14.945312 C 22.179688 14.851562 22.179688 14.753906 22.167969 14.660156 Z M 22.167969 14.660156 "/>
<path style=" stroke:none;fill-rule:nonzero;fill:rgb(0%,0%,0%);fill-opacity:0.235294;" d="M 20.171875 9.855469 C 18.609375 9.890625 17.242188 10.042969 16.296875 10.726562 C 15.566406 11.253906 14.925781 12.148438 14.558594 13.796875 L 14.734375 13.796875 C 15.109375 12.5625 15.667969 11.839844 16.296875 11.386719 C 17.242188 10.703125 18.609375 10.554688 20.171875 10.519531 Z M 22.167969 15.316406 L 22.167969 15.601562 C 22.179688 15.503906 22.179688 15.410156 22.167969 15.316406 Z M 14.285156 15.796875 C 14.246094 16.292969 14.230469 16.835938 14.230469 17.429688 L 14.230469 18.089844 C 14.230469 17.5 14.246094 16.957031 14.285156 16.457031 L 20.171875 16.457031 L 20.171875 15.796875 Z M 12.230469 20.75 L 12.230469 21.414062 C 12.226562 21.773438 12.417969 22.105469 12.726562 22.285156 C 13.039062 22.46875 13.421875 22.46875 13.734375 22.285156 C 14.042969 22.105469 14.234375 21.773438 14.230469 21.414062 L 14.230469 20.75 C 14.234375 21.109375 14.042969 21.445312 13.734375 21.625 C 13.421875 21.804688 13.039062 21.804688 12.726562 21.625 C 12.417969 21.445312 12.226562 21.109375 12.230469 20.75 Z M 20.171875 20.75 L 20.171875 21.414062 C 20.164062 21.773438 20.355469 22.105469 20.667969 22.285156 C 20.976562 22.46875 21.359375 22.46875 21.671875 22.285156 C 21.980469 22.105469 22.171875 21.773438 22.167969 21.414062 L 22.167969 20.75 C 22.171875 21.109375 21.980469 21.445312 21.671875 21.625 C 21.359375 21.804688 20.976562 21.804688 20.667969 21.625 C 20.355469 21.445312 20.164062 21.109375 20.171875 20.75 Z M 20.171875 20.75 "/>
<path style="fill:none;stroke-width:11.338583;stroke-linecap:round;stroke-linejoin:round;stroke:rgb(12.941177%,12.941177%,12.941177%);stroke-opacity:1;stroke-miterlimit:4;" d="M 1257.281577 474.757837 C 1143.197977 474.52164 1018.48547 476.175025 914.794579 551.049769 C 804.017751 630.884669 739.535716 785.358114 739.535716 1054.387555 L 739.535716 1255.155795 C 739.299518 1276.886005 750.873217 1296.962829 769.532853 1308.064131 C 788.428687 1318.929236 811.576084 1318.929236 830.471919 1308.064131 C 849.131555 1296.962829 860.705254 1276.886005 860.469056 1255.155795 L 860.469056 1054.387555 C 860.469056 1018.48547 861.413847 985.653958 863.775827 955.420623 L 1219.726106 955.420623 L 1219.726106 1255.155795 C 1219.25371 1276.886005 1230.827408 1296.962829 1249.723243 1308.064131 C 1268.382879 1318.929236 1291.530276 1318.929236 1310.426111 1308.064131 C 1329.085747 1296.962829 1340.659445 1276.886005 1340.423248 1255.155795 L 1340.423248 903.693277 C 1341.131841 898.024526 1341.131841 892.119578 1340.423248 886.450828 L 1340.423248 535.224507 C 1340.423248 501.684401 1313.260486 474.757837 1279.956578 474.757837 C 1272.398244 474.757837 1264.83991 474.757837 1257.281577 474.757837 Z M 1219.726106 596.399771 L 1219.726106 834.723481 L 880.309682 834.723481 C 902.512287 735.047955 941.248747 680.722432 985.41776 649.071909 C 1042.577659 607.737272 1125.246934 598.525552 1219.726106 596.399771 Z M 1219.726106 596.399771 " transform="matrix(0.016538,0,0,0.016538,0,0)"/>
<path style="fill:none;stroke-width:8;stroke-linecap:round;stroke-linejoin:round;stroke:url(#linear4);stroke-dasharray:16,16;stroke-dashoffset:7.200001;stroke-miterlimit:4;" d="M 148.17335 -147.506445 L 148.17335 212.334192 L 391.587605 212.334192 C 397.462044 212.334192 402.149097 207.584645 402.149097 201.7727 L 402.149097 -136.944954 C 402.149097 -142.756899 397.462044 -147.506445 391.587605 -147.506445 Z M 148.17335 -147.506445 " transform="matrix(0.062506,0,0,0.062506,0,13.438783)"/>
<path style=" stroke:none;fill-rule:nonzero;fill:url(#linear5);" d="M 5.292969 9.179688 L 8.601562 9.179688 L 8.601562 10.503906 L 5.292969 10.503906 Z M 5.292969 9.179688 "/>
<path style=" stroke:none;fill-rule:nonzero;fill:rgb(0%,0%,0%);fill-opacity:0.235294;" d="M 5.292969 10.503906 L 5.292969 11 L 8.601562 11 L 8.601562 10.503906 Z M 5.292969 10.503906 "/>
<path style=" stroke:none;fill-rule:nonzero;fill:rgb(100%,100%,100%);fill-opacity:0.392157;" d="M 5.292969 9.179688 L 5.292969 9.511719 L 8.601562 9.511719 L 8.601562 9.179688 Z M 5.292969 9.179688 "/>
<path style="fill:none;stroke-width:3;stroke-linecap:round;stroke-linejoin:round;stroke:rgb(12.941177%,12.941177%,12.941177%);stroke-opacity:1;stroke-miterlimit:4;" d="M 84.679408 -20.514265 L 137.611854 -20.514265 L 137.611854 0.671212 L 84.679408 0.671212 Z M 84.679408 -20.514265 " transform="matrix(0.062506,0,0,0.062506,0.000000317922,10.461951)"/>
<path style=" stroke:none;fill-rule:nonzero;fill:url(#linear6);" d="M 5.292969 20.09375 L 8.601562 20.09375 L 8.601562 21.417969 L 5.292969 21.417969 Z M 5.292969 20.09375 "/>
<path style=" stroke:none;fill-rule:nonzero;fill:rgb(0%,0%,0%);fill-opacity:0.235294;" d="M 5.292969 21.417969 L 5.292969 21.914062 L 8.601562 21.914062 L 8.601562 21.417969 Z M 5.292969 21.417969 "/>
<path style=" stroke:none;fill-rule:nonzero;fill:rgb(100%,100%,100%);fill-opacity:0.392157;" d="M 5.292969 20.09375 L 5.292969 20.425781 L 8.601562 20.425781 L 8.601562 20.09375 Z M 5.292969 20.09375 "/>
<path style="fill:none;stroke-width:3;stroke-linecap:round;stroke-linejoin:round;stroke:rgb(12.941177%,12.941177%,12.941177%);stroke-opacity:1;stroke-miterlimit:4;" d="M 84.679408 -20.530958 L 137.611854 -20.530958 L 137.611854 0.654519 L 84.679408 0.654519 Z M 84.679408 -20.530958 " transform="matrix(0.062506,0,0,0.062506,0.000000317922,21.377057)"/>
</g>
</svg>
